wp-content/themes/canvas/img/logo-damon-smile.svg

<svg viewBox="0 0 581.7 105.35" xmlns="http://www.w3.org/2000/svg"><g transform="translate(-11.36 -13.66)"><g fill="#0069aa"><path d="m11.36 86.64h4.17l9.93 21.75 10-21.75h3.86v24.72h-2.71v-22.27h-.08l-9.89 22.28h-2.3l-10.21-22.28h-.08v22.28h-2.69z"/><path d="m60.1 92.87c6.43 0 9.27 4.53 9.27 9.46s-2.84 9.46-9.27 9.46-9.27-4.53-9.27-9.46 2.84-9.46 9.27-9.46zm0 17c4.29 0 6.58-3.36 6.58-7.54s-2.3-7.54-6.58-7.54-6.58 3.37-6.58 7.54 2.29 7.54 6.58 7.54z"/><path d="m80.63 97.34a29.55 29.55 0 0 0 -.16-4h2.45v3.47h.08c.9-2 2.57-3.9 5.1-3.9a8 8 0 0 1 1.71.21v2.34a7 7 0 0 0 -1.81-.25c-3.9 0-4.95 4-4.95 7.22v8.92h-2.42z"/><path d="m113.63 110.8a17.72 17.72 0 0 1 -5.77 1c-6.58 0-9-4-9-9.46s3.35-9.46 8.38-9.46c5.61 0 7.91 4.11 7.91 9v1.12h-13.6c0 3.83 2.26 6.91 6.54 6.91a13.78 13.78 0 0 0 5.57-1.35zm-1.21-9.74c0-3.15-1.4-6.27-5.06-6.27s-5.84 3.29-5.84 6.27z"/><path d="m153.21 95.21h-4.52v11.69c0 1.63.66 3 2.65 3a6.17 6.17 0 0 0 2.26-.42l.16 1.84a9.74 9.74 0 0 1 -3 .5c-4.36 0-4.52-2.73-4.52-6v-10.61h-3.9v-1.91h3.9v-4.36l2.45-.78v5.14h4.52z"/><path d="m165.8 84.8h2.45v11.55h.08a6.83 6.83 0 0 1 6.19-3.47c5.34 0 6.78 3.22 6.78 7.69v10.8h-2.45v-10.77c0-3.12-.66-5.81-4.71-5.81-4.36 0-5.88 3.75-5.88 6.91v9.67h-2.46z"/><path d="m206.27 108.46h-.08c-1.09 2.16-3.86 3.33-6.31 3.33-5.65 0-6.54-3.47-6.54-5.1 0-6.06 7.09-6.34 12.23-6.34h.43v-.92c0-3.08-1.21-4.64-4.52-4.64a11.35 11.35 0 0 0 -5.84 1.49v-2.17a16.94 16.94 0 0 1 5.84-1.24c4.91 0 7 2 7 6.73v8a23.35 23.35 0 0 0 .19 3.79h-2.42zm-.23-6.2h-.7c-4.25 0-9.31.39-9.31 4.36 0 2.37 1.87 3.26 4.13 3.26 5.77 0 5.88-4.57 5.88-6.52z"/><path d="m221.74 97.55a39.39 39.39 0 0 0 -.16-4.25h2.42v3.22c.82-1.63 2.3-3.65 6.43-3.65 4.91 0 6.78 3 6.78 6.94v11.55h-2.45v-11c0-3.4-1.32-5.6-4.71-5.6-4.48 0-5.88 3.58-5.88 6.59v10h-2.45z"/><path d="m267.52 108.74a12.64 12.64 0 0 0 5.18 1.13c2.34 0 4.4-1.17 4.4-3.22 0-4.29-9.54-3.61-9.54-8.85 0-3.58 3.19-4.92 6.47-4.92a17.08 17.08 0 0 1 4.91.81l-.23 1.95a12.59 12.59 0 0 0 -4.4-.85c-2.53 0-4.29.71-4.29 3 0 3.36 9.78 2.94 9.78 8.85 0 3.82-3.93 5.13-6.93 5.13a16.31 16.31 0 0 1 -5.57-.85z"/><path d="m300.16 95.21h-4.52v11.69c0 1.63.66 3 2.65 3a6.17 6.17 0 0 0 2.26-.42l.16 1.84a9.74 9.74 0 0 1 -3 .5c-4.36 0-4.52-2.73-4.52-6v-10.61h-3.9v-1.91h3.9v-4.36l2.45-.78v5.14h4.52z"/><path d="m312 97.34a29.63 29.63 0 0 0 -.16-4h2.45v3.47h.08c.9-2 2.57-3.9 5.1-3.9a8 8 0 0 1 1.71.21v2.34a7 7 0 0 0 -1.79-.21c-3.9 0-4.95 4-4.95 7.22v8.92h-2.44z"/><path d="m343.76 108.46h-.08c-1.09 2.16-3.86 3.33-6.31 3.33-5.65 0-6.54-3.47-6.54-5.1 0-6.06 7.09-6.34 12.23-6.34h.47v-.92c0-3.08-1.21-4.64-4.52-4.64a11.35 11.35 0 0 0 -5.84 1.49v-2.17a17 17 0 0 1 5.83-1.24c4.91 0 7 2 7 6.73v8a23.3 23.3 0 0 0 .2 3.79h-2.42zm-.23-6.2h-.7c-4.25 0-9.31.39-9.31 4.36 0 2.37 1.87 3.26 4.13 3.26 5.77 0 5.88-4.57 5.88-6.52z"/><path d="m360.9 88.48h-2.45v-3h2.45zm-2.45 4.82h2.45v18.06h-2.45z"/><path d="m390.24 109.87c0 5-2.49 9.14-9.31 9.14a22.46 22.46 0 0 1 -6-1l.2-2.23a14.55 14.55 0 0 0 5.87 1.32c6.31 0 6.86-4.18 6.86-9.28h-.08a6.22 6.22 0 0 1 -6 3.54c-6.35 0-8.37-5-8.37-9 0-5.49 2.34-9.46 8.18-9.46 2.65 0 4.36.32 6.19 2.48h.08v-2.08h2.46zm-8.49-.42c4.44 0 6-3.83 6-7.12 0-4.36-1.4-7.54-5.88-7.54-4.68 0-5.88 4-5.88 7.54s1.59 7.12 5.75 7.12z"/><path d="m402.78 84.8h2.46v11.55h.08a6.82 6.82 0 0 1 6.19-3.47c5.34 0 6.78 3.22 6.78 7.69v10.8h-2.46v-10.77c0-3.12-.66-5.81-4.71-5.81-4.36 0-5.88 3.75-5.88 6.91v9.67h-2.46z"/><path d="m440.42 95.21h-4.52v11.69c0 1.63.66 3 2.65 3a6.17 6.17 0 0 0 2.26-.42l.16 1.84a9.74 9.74 0 0 1 -3 .5c-4.36 0-4.52-2.73-4.52-6v-10.61h-3.9v-1.91h3.9v-4.36l2.45-.78v5.14h4.52z"/><path d="m477.47 95.21h-4.52v11.69c0 1.63.66 3 2.65 3a6.17 6.17 0 0 0 2.26-.42l.16 1.84a9.76 9.76 0 0 1 -3 .5c-4.36 0-4.52-2.73-4.52-6v-10.61h-3.9v-1.91h3.89v-4.36l2.46-.78v5.14h4.52z"/><path d="m502.59 110.8a17.71 17.71 0 0 1 -5.77 1c-6.58 0-9-4-9-9.46s3.35-9.46 8.37-9.46c5.61 0 7.91 4.11 7.91 9v1.12h-13.6c0 3.83 2.26 6.91 6.54 6.91a13.77 13.77 0 0 0 5.57-1.35zm-1.21-9.74c0-3.15-1.4-6.27-5.06-6.27s-5.84 3.29-5.84 6.27z"/><path d="m529.48 110.8a17.73 17.73 0 0 1 -5.77 1c-6.58 0-9-4-9-9.46s3.29-9.47 8.29-9.47c5.61 0 7.91 4.11 7.91 9v1.13h-13.6c0 3.83 2.26 6.91 6.54 6.91a13.79 13.79 0 0 0 5.57-1.35zm-1.21-9.74c0-3.15-1.4-6.27-5.06-6.27s-5.84 3.29-5.84 6.27z"/><path d="m550.83 95.21h-4.52v11.69c0 1.63.66 3 2.65 3a6.17 6.17 0 0 0 2.26-.42l.16 1.84a9.74 9.74 0 0 1 -3 .5c-4.36 0-4.52-2.73-4.52-6v-10.61h-3.86v-1.91h3.9v-4.36l2.45-.78v5.14h4.52z"/><path d="m563.41 84.8h2.45v11.55h.08a6.83 6.83 0 0 1 6.2-3.47c5.34 0 6.78 3.22 6.78 7.69v10.8h-2.45v-10.77c0-3.12-.66-5.81-4.71-5.81-4.36 0-5.88 3.75-5.88 6.91v9.67h-2.45z"/><path d="m580.79 85.65h-2.07v-.65h5.13v.69h-2.07v5.21h-1zm4.46-.69h1.61l1.93 4.58 1.92-4.54h1.61v5.9h-1v-5.17l-2.18 5.16h-.68l-2.16-5.16v5.17h-1z"/><path d="m34.47 29.06h5.6c8.15 0 10.18 5.26 10.18 15.45 0 9.84-1.86 15.28-10.1 15.28h-5.68zm-22.74 45.5h32.42c17 0 29.88-7 29.88-29.45 0-24-12-29.79-28.95-29.79h-33.35z"/><path d="m105.17 28h.17l6.45 19.44h-13.15zm-36 46.52h22.68l3.65-12.78h19.18l3.91 12.81h23.85l-21.14-59.24h-31.3z"/><path d="m144.62 15.31h33.61l7.77 32.43h.17l7.64-32.43h33.49v59.25h-20.38l-.33-46.56h-.17l-11.63 46.56h-18.93l-11.29-46.56h-.33l-.24 46.56h-19.38z"/><path d="m254.8 44.93c0-5.51.68-16.37 9.08-16.37 8.66 0 9.25 10.86 9.34 16.38-.08 6.37-.34 16.39-9.34 16.39-8.15-.01-9.08-10.03-9.08-16.4zm42.18 0c0-19.86-12.39-30.64-33.1-30.64s-32.88 10.78-32.88 30.64c0 20.2 12.14 30.64 32.85 30.64s33.15-10.44 33.15-30.64z"/><path d="m300.29 15.31h34l11 41.76h.17v-41.76h19.54v59.25h-33.47l-11.53-42.95h-.17v42.95h-19.54z"/></g><path d="m429.4 15.57h10.4l19.08 49.33 19.12-49.33h9.74v58h-5.62v-52.26h-.12l-20.68 52.25h-4.8l-21.34-52.25h-.18v52.25h-5.6z" fill="#00a4e4"/><path d="m496.42 15.57h6v58h-6z" fill="#00a4e4"/><path d="m510.74 15.57h6.59v53h31.8v5h-38.39z" fill="#00a4e4"/><path d="m554.19 15.57h37.72v5h-31.13v20.67h29.8v5h-29.8v22.34h32.28v5h-38.87z" fill="#00a4e4"/><path d="m384 66.07c4.39 2.19 9.52 3.46 16.48 3.46 9.2 0 16.79-3.71 16.79-12.07 0-11.57-34.24-13-34.24-28.45 0-9.45 10.49-15.36 23.64-15.36a55.4 55.4 0 0 1 14.66 1.94l-1.18 5.32c-3.32-1.43-8.56-2.19-13.59-2.19-7.7 0-16.16 2.53-16.16 10.13 0 11.82 34.24 11.9 34.24 29.12 0 11.9-12.94 16.63-24.5 16.63a52.72 52.72 0 0 1 -16.91-2.53z" fill="#00a4e4"/><path d="m371.53 16.26h-2.07v-.69h5.13v.69h-2.07v5.25h-1zm4.46-.69h1.61l1.93 4.58 1.92-4.58h1.61v5.94h-1v-5.16l-2.18 5.16h-.68l-2.2-5.16v5.16h-1z" fill="#0069aa"/></g></svg>

<svg id="Layer_1" data-name="Layer 1" xmlns="http://www.w3.org/2000/svg" viewBox="0 0 581.7 105.35"><defs><style>.cls-1{fill:#0069aa;}.cls-2{fill:#00a4e4;}</style></defs><title>logo-damon-smile</title><path class="cls-1" d="M11.36,86.64h4.17l9.93,21.75,10-21.75h3.86v24.72H36.61V89.09h-.08l-9.89,22.28h-2.3L14.13,89.09h-.08v22.28H11.36Z" transform="translate(-11.36 -13.66)"/><path class="cls-1" d="M60.1,92.87c6.43,0,9.27,4.53,9.27,9.46s-2.84,9.46-9.27,9.46-9.27-4.53-9.27-9.46S53.67,92.87,60.1,92.87Zm0,17c4.29,0,6.58-3.36,6.58-7.54s-2.3-7.54-6.58-7.54-6.58,3.37-6.58,7.54S55.81,109.87,60.1,109.87Z" transform="translate(-11.36 -13.66)"/><path class="cls-1" d="M80.63,97.34a29.55,29.55,0,0,0-.16-4h2.45v3.47H83c.9-2,2.57-3.9,5.1-3.9a8,8,0,0,1,1.71.21v2.34A7,7,0,0,0,88,95.21c-3.9,0-4.95,4-4.95,7.22v8.92H80.63Z" transform="translate(-11.36 -13.66)"/><path class="cls-1" d="M113.63,110.8a17.72,17.72,0,0,1-5.77,1c-6.58,0-9-4-9-9.46s3.35-9.46,8.38-9.46c5.61,0,7.91,4.11,7.91,9V103h-13.6c0,3.83,2.26,6.91,6.54,6.91a13.78,13.78,0,0,0,5.57-1.35Zm-1.21-9.74c0-3.15-1.4-6.27-5.06-6.27s-5.84,3.29-5.84,6.27Z" transform="translate(-11.36 -13.66)"/><path class="cls-1" d="M153.21,95.21h-4.52V106.9c0,1.63.66,3,2.65,3a6.17,6.17,0,0,0,2.26-.42l.16,1.84a9.74,9.74,0,0,1-3,.5c-4.36,0-4.52-2.73-4.52-6V95.21h-3.9V93.3h3.9V88.94l2.45-.78V93.3h4.52Z" transform="translate(-11.36 -13.66)"/><path class="cls-1" d="M165.8,84.8h2.45V96.35h.08a6.83,6.83,0,0,1,6.19-3.47c5.34,0,6.78,3.22,6.78,7.69v10.8h-2.45V100.6c0-3.12-.66-5.81-4.71-5.81-4.36,0-5.88,3.75-5.88,6.91v9.67H165.8Z" transform="translate(-11.36 -13.66)"/><path class="cls-1" d="M206.27,108.46h-.08c-1.09,2.16-3.86,3.33-6.31,3.33-5.65,0-6.54-3.47-6.54-5.1,0-6.06,7.09-6.34,12.23-6.34H206v-.92c0-3.08-1.21-4.64-4.52-4.64a11.35,11.35,0,0,0-5.84,1.49V94.11a16.94,16.94,0,0,1,5.84-1.24c4.91,0,7,2,7,6.73v8a23.35,23.35,0,0,0,.19,3.79h-2.42Zm-.23-6.2h-.7c-4.25,0-9.31.39-9.31,4.36,0,2.37,1.87,3.26,4.13,3.26,5.77,0,5.88-4.57,5.88-6.52Z" transform="translate(-11.36 -13.66)"/><path class="cls-1" d="M221.74,97.55a39.39,39.39,0,0,0-.16-4.25H224v3.22H224c.82-1.63,2.3-3.65,6.43-3.65,4.91,0,6.78,3,6.78,6.94v11.55h-2.45v-11c0-3.4-1.32-5.6-4.71-5.6-4.48,0-5.88,3.58-5.88,6.59v10h-2.45Z" transform="translate(-11.36 -13.66)"/><path class="cls-1" d="M267.52,108.74a12.64,12.64,0,0,0,5.18,1.13c2.34,0,4.4-1.17,4.4-3.22,0-4.29-9.54-3.61-9.54-8.85,0-3.58,3.19-4.92,6.47-4.92a17.08,17.08,0,0,1,4.91.81l-.23,1.95a12.59,12.59,0,0,0-4.4-.85c-2.53,0-4.29.71-4.29,3,0,3.36,9.78,2.94,9.78,8.85,0,3.82-3.93,5.13-6.93,5.13a16.31,16.31,0,0,1-5.57-.85Z" transform="translate(-11.36 -13.66)"/><path class="cls-1" d="M300.16,95.21h-4.52V106.9c0,1.63.66,3,2.65,3a6.17,6.17,0,0,0,2.26-.42l.16,1.84a9.74,9.74,0,0,1-3,.5c-4.36,0-4.52-2.73-4.52-6V95.21h-3.9V93.3h3.9V88.94l2.45-.78V93.3h4.52Z" transform="translate(-11.36 -13.66)"/><path class="cls-1" d="M312,97.34a29.63,29.63,0,0,0-.16-4h2.45v3.47h.08c.9-2,2.57-3.9,5.1-3.9a8,8,0,0,1,1.71.21v2.34a7,7,0,0,0-1.79-.21c-3.9,0-4.95,4-4.95,7.22v8.92H312Z" transform="translate(-11.36 -13.66)"/><path class="cls-1" d="M343.76,108.46h-.08c-1.09,2.16-3.86,3.33-6.31,3.33-5.65,0-6.54-3.47-6.54-5.1,0-6.06,7.09-6.34,12.23-6.34h.47v-.92c0-3.08-1.21-4.64-4.52-4.64a11.35,11.35,0,0,0-5.84,1.49V94.11A17,17,0,0,1,339,92.87c4.91,0,7,2,7,6.73v8a23.3,23.3,0,0,0,.2,3.79h-2.42Zm-.23-6.2h-.7c-4.25,0-9.31.39-9.31,4.36,0,2.37,1.87,3.26,4.13,3.26,5.77,0,5.88-4.57,5.88-6.52Z" transform="translate(-11.36 -13.66)"/><path class="cls-1" d="M360.9,88.48h-2.45v-3h2.45Zm-2.45,4.82h2.45v18.06h-2.45Z" transform="translate(-11.36 -13.66)"/><path class="cls-1" d="M390.24,109.87c0,5-2.49,9.14-9.31,9.14a22.46,22.46,0,0,1-6-1l.2-2.23A14.55,14.55,0,0,0,381,117.1c6.31,0,6.86-4.18,6.86-9.28h-.08a6.22,6.22,0,0,1-6,3.54c-6.35,0-8.37-5-8.37-9,0-5.49,2.34-9.46,8.18-9.46,2.65,0,4.36.32,6.19,2.48h.08V93.3h2.46Zm-8.49-.42c4.44,0,6-3.83,6-7.12,0-4.36-1.4-7.54-5.88-7.54-4.68,0-5.88,4-5.88,7.54S377.58,109.45,381.74,109.45Z" transform="translate(-11.36 -13.66)"/><path class="cls-1" d="M402.78,84.8h2.46V96.35h.08a6.82,6.82,0,0,1,6.19-3.47c5.34,0,6.78,3.22,6.78,7.69v10.8h-2.46V100.6c0-3.12-.66-5.81-4.71-5.81-4.36,0-5.88,3.75-5.88,6.91v9.67h-2.46Z" transform="translate(-11.36 -13.66)"/><path class="cls-1" d="M440.42,95.21H435.9V106.9c0,1.63.66,3,2.65,3a6.17,6.17,0,0,0,2.26-.42l.16,1.84a9.74,9.74,0,0,1-3,.5c-4.36,0-4.52-2.73-4.52-6V95.21h-3.9V93.3h3.9V88.94l2.45-.78V93.3h4.52Z" transform="translate(-11.36 -13.66)"/><path class="cls-1" d="M477.47,95.21h-4.52V106.9c0,1.63.66,3,2.65,3a6.17,6.17,0,0,0,2.26-.42l.16,1.84a9.76,9.76,0,0,1-3,.5c-4.36,0-4.52-2.73-4.52-6V95.21H466.6V93.3h3.89V88.94l2.46-.78V93.3h4.52Z" transform="translate(-11.36 -13.66)"/><path class="cls-1" d="M502.59,110.8a17.71,17.71,0,0,1-5.77,1c-6.58,0-9-4-9-9.46s3.35-9.46,8.37-9.46c5.61,0,7.91,4.11,7.91,9V103h-13.6c0,3.83,2.26,6.91,6.54,6.91a13.77,13.77,0,0,0,5.57-1.35Zm-1.21-9.74c0-3.15-1.4-6.27-5.06-6.27s-5.84,3.29-5.84,6.27Z" transform="translate(-11.36 -13.66)"/><path class="cls-1" d="M529.48,110.8a17.73,17.73,0,0,1-5.77,1c-6.58,0-9-4-9-9.46S518,92.87,523,92.87c5.61,0,7.91,4.11,7.91,9V103h-13.6c0,3.83,2.26,6.91,6.54,6.91a13.79,13.79,0,0,0,5.57-1.35Zm-1.21-9.74c0-3.15-1.4-6.27-5.06-6.27s-5.84,3.29-5.84,6.27Z" transform="translate(-11.36 -13.66)"/><path class="cls-1" d="M550.83,95.21h-4.52V106.9c0,1.63.66,3,2.65,3a6.17,6.17,0,0,0,2.26-.42l.16,1.84a9.74,9.74,0,0,1-3,.5c-4.36,0-4.52-2.73-4.52-6V95.21H540V93.3h3.9V88.94l2.45-.78V93.3h4.52Z" transform="translate(-11.36 -13.66)"/><path class="cls-1" d="M563.41,84.8h2.45V96.35h.08a6.83,6.83,0,0,1,6.2-3.47c5.34,0,6.78,3.22,6.78,7.69v10.8h-2.45V100.6c0-3.12-.66-5.81-4.71-5.81-4.36,0-5.88,3.75-5.88,6.91v9.67h-2.45Z" transform="translate(-11.36 -13.66)"/><path class="cls-1" d="M580.79,85.65h-2.07V85h5.13v.69h-2.07V90.9h-1Zm4.46-.69h1.61l1.93,4.58L590.71,85h1.61V90.9h-1V85.73h0l-2.18,5.16h-.68l-2.16-5.16h0V90.9h-1Z" transform="translate(-11.36 -13.66)"/><path class="cls-1" d="M34.47,29.06h5.6c8.15,0,10.18,5.26,10.18,15.45,0,9.84-1.86,15.28-10.1,15.28H34.47ZM11.73,74.56H44.15c17,0,29.88-7,29.88-29.45,0-24-12-29.79-28.95-29.79H11.73Z" transform="translate(-11.36 -13.66)"/><path class="cls-1" d="M105.17,28h.17l6.45,19.44H98.64Zm-36,46.52H91.85L95.5,61.74h19.18l3.91,12.81h23.85L121.3,15.31H90Z" transform="translate(-11.36 -13.66)"/><path class="cls-1" d="M144.62,15.31h33.61L186,47.74h.17l7.64-32.43H227.3V74.56H206.92L206.59,28h-.17L194.79,74.56H175.86L164.57,28h-.33L164,74.56H144.62Z" transform="translate(-11.36 -13.66)"/><path class="cls-1" d="M254.8,44.93c0-5.51.68-16.37,9.08-16.37,8.66,0,9.25,10.86,9.34,16.38-.08,6.37-.34,16.39-9.34,16.39C255.73,61.32,254.8,51.3,254.8,44.93Zm42.18,0c0-19.86-12.39-30.64-33.1-30.64S231,25.07,231,44.93c0,20.2,12.14,30.64,32.85,30.64S297,65.13,297,44.93Z" transform="translate(-11.36 -13.66)"/><path class="cls-1" d="M300.29,15.31h34l11,41.76h.17V15.31H365V74.56H331.53L320,31.61h-.17V74.56H300.29Z" transform="translate(-11.36 -13.66)"/><path class="cls-2" d="M429.4,15.57h10.4L458.88,64.9,478,15.57h9.74v58h-5.62V21.31H482L461.32,73.56h-4.8L435.18,21.31H435V73.56H429.4Z" transform="translate(-11.36 -13.66)"/><path class="cls-2" d="M496.42,15.57h6v58h-6Z" transform="translate(-11.36 -13.66)"/><path class="cls-2" d="M510.74,15.57h6.59v53h31.8v5H510.74Z" transform="translate(-11.36 -13.66)"/><path class="cls-2" d="M554.19,15.57h37.72v5H560.78V41.24h29.8v5h-29.8V68.58h32.28v5H554.19Z" transform="translate(-11.36 -13.66)"/><path class="cls-2" d="M384,66.07c4.39,2.19,9.52,3.46,16.48,3.46,9.2,0,16.79-3.71,16.79-12.07,0-11.57-34.24-13-34.24-28.45,0-9.45,10.49-15.36,23.64-15.36a55.4,55.4,0,0,1,14.66,1.94l-1.18,5.32c-3.32-1.43-8.56-2.19-13.59-2.19-7.7,0-16.16,2.53-16.16,10.13,0,11.82,34.24,11.9,34.24,29.12,0,11.9-12.94,16.63-24.5,16.63a52.72,52.72,0,0,1-16.91-2.53Z" transform="translate(-11.36 -13.66)"/><path class="cls-1" d="M371.53,16.26h-2.07v-.69h5.13v.69h-2.07v5.25h-1Zm4.46-.69h1.61l1.93,4.58,1.92-4.58h1.61v5.94h-1V16.35h0l-2.18,5.16h-.68L377,16.35h0v5.16h-1Z" transform="translate(-11.36 -13.66)"/></svg>
